X:5671
T:Gan Ainm
R:Reel
C:
S:
H:
N:
D:Clare FM Broadcast
Z:Adrian Scahill
M:4/4
L:1/8
K:D
D2FA dBBd|(3ABA FD EB,B,E|D2FA dBBd|AFDF (3EFE D2:||
Adfd edfd|adfd eBB2|Adfd edfd|AFDF (3EFE D2|\
Adfd edfd|adfd ed (3Bcd|g3e f3e|dBAF E2FE||


